X:463
T:Donald MacPherson's Lament 
C:Joe Buchanan's Scottish Tome - Page 497.0-498.0
I:497 0
Z:Jo Wegstein
C:J. S. Skinner
R:Pibroch
L:1/8
M:2/4
K:Dmaj
A | {fg}"D"f2 "A"(ea) | "D"(fd) "G"(e/d/B) | "D"{c}d2 (Af) | "A"{f}e2 > A2 |
"D"{fa}f2 "A"(ea) | "D"(fd) "G"(e/d/B) | "D"{A}(dA) "A"{A}(eA) | "D"{A}(d2 d) :|
|: "G"{Bd}B2 (dB) | "D"A2 d2 | "G"(dB) (df) | "A"{f}e2> A |
"D"{fg}f2 "A"(ea) | "D"(fd) "G"(e/d/B) | "D"!uppermordent!(dA) "A"{ef}(e>d) | "D"(d2 d) z :|
%%vskip 0
%%MIDI gchordoff
z | A2 A2 | AF GG | F2 (FA) | (GE) (CA,) |
A2 A2 | AF GG | F2 G2 | (F2 F) :|
|: G2 (BG) | F2 F2 | B2 (BA) | (GE) (CA,) |
A2 A2 | AF GG | F2 (G>F) | (F2 F) z :|
%%newpage
T:Donald MacPherson's Lament (cont) 
A | {fa}[Af]2 [Ae][Aa] | [Af][Fd] [Ge]/d/[GB] | {c}[Fd]2 [FA][Af] | {f}([Ge]2> E2) ([CA] A,) |
{fa}[Af]2 [Ae][Aa] | [Af][Fd] [Ge]/d/[GB] | {A}[Fd][FA] {A}[Ge][FA] | {A}[Fd]2 [Fd] :|
|: {Bd}[GB]2 [Bd][GB] | [FA]2 [Fd]2 | [Fd]B [Bd][Af] | {f}([Ge]2 E) ([CA] A,) |
{fa}[Af]2 [Ae][Aa] | [Af][Fd] [Ge]/d/[GB] | !uppermordent![Fd][GB] {ef}[Ge]>[Fd] | [Fd]2 [Fd] z :|
